pkgs/tbo/tags/tbo-0.98~git20100623+2295523-0ubuntu1guada1/data/doodle/accesories/actions/edit-undo.svg

<?xml version="1.0" encoding="UTF-8" standalone="no"?>
<!-- Created with Inkscape (http://www.inkscape.org/) -->

<svg
   xmlns:svg="http://www.w3.org/2000/svg"
   xmlns="http://www.w3.org/2000/svg"
   xmlns:xlink="http://www.w3.org/1999/xlink"
   version="1.1"
   width="48"
   height="48"
   id="svg11300">
  <defs
     id="defs3">
    <linearGradient
       id="linearGradient2326">
      <stop
         id="stop2328"
         style="stop-color:#ffffff;stop-opacity:1"
         offset="0" />
      <stop
         id="stop2330"
         style="stop-color:#ffffff;stop-opacity:0"
         offset="1" />
    </linearGradient>
    <linearGradient
       id="linearGradient2316">
      <stop
         id="stop2318"
         style="stop-color:#c4a000;stop-opacity:1"
         offset="0" />
      <stop
         id="stop2320"
         style="stop-color:#c4a000;stop-opacity:0"
         offset="1" />
    </linearGradient>
    <linearGradient
       id="linearGradient2308">
      <stop
         id="stop2310"
         style="stop-color:#edd400;stop-opacity:1"
         offset="0" />
      <stop
         id="stop2312"
         style="stop-color:#edd400;stop-opacity:0"
         offset="1" />
    </linearGradient>
    <linearGradient
       id="linearGradient8662">
      <stop
         id="stop8664"
         style="stop-color:#000000;stop-opacity:1"
         offset="0" />
      <stop
         id="stop8666"
         style="stop-color:#000000;stop-opacity:0"
         offset="1" />
    </linearGradient>
    <radialGradient
       cx="24.837126"
       cy="36.421127"
       r="15.644737"
       fx="24.837126"
       fy="36.421127"
       id="radialGradient8668"
       xlink:href="#linearGradient8662"
       gradientUnits="userSpaceOnUse"
       gradientTransform="matrix(1,0,0,0.536723,0,16.87306)" />
    <linearGradient
       id="linearGradient2187">
      <stop
         id="stop2189"
         style="stop-color:#ffffff;stop-opacity:1"
         offset="0" />
      <stop
         id="stop2191"
         style="stop-color:#ffffff;stop-opacity:0"
         offset="1" />
    </linearGradient>
    <linearGradient
       x1="17.060806"
       y1="11.39502"
       x2="12.624337"
       y2="12.583769"
       id="linearGradient1764"
       xlink:href="#linearGradient2187"
       gradientUnits="userSpaceOnUse"
       gradientTransform="matrix(0,-1.171926,-1.171926,0,46.1744,54.10111)" />
    <linearGradient
       x1="26.5"
       y1="34.25"
       x2="26.25"
       y2="43.571831"
       id="linearGradient2314"
       xlink:href="#linearGradient2308"
       gradientUnits="userSpaceOnUse" />
    <linearGradient
       x1="26.5"
       y1="34.25"
       x2="26.25"
       y2="43.571831"
       id="linearGradient2322"
       xlink:href="#linearGradient2316"
       gradientUnits="userSpaceOnUse" />
    <radialGradient
       cx="15.09403"
       cy="13.282721"
       r="10.16466"
       fx="15.09403"
       fy="13.282721"
       id="radialGradient2332"
       xlink:href="#linearGradient2326"
       gradientUnits="userSpaceOnUse"
       gradientTransform="matrix(2.496031,0,0,2.300689,-25.12402,-17.82636)" />
  </defs>
  <g
     id="layer1">
    <path
       d="M 9.582441,45.034369 C 49.608249,46.355509 43.282405,12.29355 22.462411,12.49765 l 0,-9.3754104 L 5.8139298,17.708819 22.462411,33.006349 c 0,0 0,-9.66838 0,-9.66838 14.06311,-0.58597 18.177528,21.43258 -12.87997,21.6964 z"
       id="path1432"
       style="color:#000000;fill:url(#linearGradient2314);fill-opacity:1;fill-rule:nonzero;stroke:url(#linearGradient2322);stroke-width:1.00000012;stroke-linecap:butt;stroke-linejoin:miter;stroke-miterlimit:4;stroke-opacity:1;stroke-dasharray:none;stroke-dashoffset:0;marker:none;visibility:visible;display:block;overflow:visible" />
    <path
       d="m 31.032281,39.315519 c 11.723099,-6.079627 8.187792,-26.22803 -9.58358,-25.76556 l 0,-8.0990912 c 0,0 -14.0477382,12.2637212 -14.0477382,12.2637212 L 21.448701,30.658617 c 0,0 0,-8.277638 0,-8.277638 14.83985,-0.34827 14.15991,12.7576 9.58358,16.93454 z"
       id="path2177"
       style="opacity:0.69886361;color:#000000;fill:none;stroke:url(#linearGradient1764);stroke-width:0.9999997;stroke-linecap:butt;stroke-linejoin:miter;stroke-miterlimit:10;stroke-opacity:1;stroke-dasharray:none;stroke-dashoffset:0;marker:none;visibility:visible;display:block;overflow:visible" />
    <path
       d="m 6.6291261,17.682797 5.6568539,5.391689 c 6.275573,-0.176777 3.447146,-6.363961 14.672466,-9.457553 L 22.008699,12.998214 21.92031,4.3361562 6.6291261,17.682797 z"
       id="path2324"
       style="opacity:0.51136361;color:#000000;fill:url(#radialGradient2332);fill-opacity:1;fill-rule:evenodd;stroke:none;stroke-width:1;marker:none;visibility:visible;display:inline;overflow:visible" />
  </g>
</svg>

<?xml version="1.0" encoding="UTF-8" standalone="no"?>
<!-- Created with Inkscape (http://www.inkscape.org/) -->

<svg
   xmlns:dc="http://purl.org/dc/elements/1.1/"
   xmlns:cc="http://creativecommons.org/ns#"
   xmlns:rdf="http://www.w3.org/1999/02/22-rdf-syntax-ns#"
   xmlns:svg="http://www.w3.org/2000/svg"
   xmlns="http://www.w3.org/2000/svg"
   xmlns:xlink="http://www.w3.org/1999/xlink"
   xmlns:sodipodi="http://sodipodi.sourceforge.net/DTD/sodipodi-0.dtd"
   xmlns:inkscape="http://www.inkscape.org/namespaces/inkscape"
   inkscape:export-ydpi="90.000000"
   inkscape:export-xdpi="90.000000"
   inkscape:export-filename="/home/jimmac/Desktop/wi-fi.png"
   width="48px"
   height="48px"
   id="svg11300"
   sodipodi:version="0.32"
   inkscape:version="0.47 r22583"
   sodipodi:docname="edit-undo.svg"
   inkscape:output_extension="org.inkscape.output.svg.inkscape"
   version="1.1">
  <defs
     id="defs3">
    <inkscape:perspective
       sodipodi:type="inkscape:persp3d"
       inkscape:vp_x="0 : 24 : 1"
       inkscape:vp_y="0 : 1000 : 0"
       inkscape:vp_z="48 : 24 : 1"
       inkscape:persp3d-origin="24 : 16 : 1"
       id="perspective31" />
    <linearGradient
       inkscape:collect="always"
       id="linearGradient2326">
      <stop
         style="stop-color:#ffffff;stop-opacity:1;"
         offset="0"
         id="stop2328" />
      <stop
         style="stop-color:#ffffff;stop-opacity:0;"
         offset="1"
         id="stop2330" />
    </linearGradient>
    <linearGradient
       inkscape:collect="always"
       id="linearGradient2316">
      <stop
         style="stop-color:#c4a000;stop-opacity:1;"
         offset="0"
         id="stop2318" />
      <stop
         style="stop-color:#c4a000;stop-opacity:0;"
         offset="1"
         id="stop2320" />
    </linearGradient>
    <linearGradient
       inkscape:collect="always"
       id="linearGradient2308">
      <stop
         style="stop-color:#edd400;stop-opacity:1;"
         offset="0"
         id="stop2310" />
      <stop
         style="stop-color:#edd400;stop-opacity:0;"
         offset="1"
         id="stop2312" />
    </linearGradient>
    <linearGradient
       inkscape:collect="always"
       id="linearGradient8662">
      <stop
         style="stop-color:#000000;stop-opacity:1;"
         offset="0"
         id="stop8664" />
      <stop
         style="stop-color:#000000;stop-opacity:0;"
         offset="1"
         id="stop8666" />
    </linearGradient>
    <radialGradient
       inkscape:collect="always"
       xlink:href="#linearGradient8662"
       id="radialGradient8668"
       cx="24.837126"
       cy="36.421127"
       fx="24.837126"
       fy="36.421127"
       r="15.644737"
       gradientTransform="matrix(1.000000,0.000000,0.000000,0.536723,-6.227265e-14,16.87306)"
       gradientUnits="userSpaceOnUse" />
    <linearGradient
       id="linearGradient2187"
       inkscape:collect="always">
      <stop
         id="stop2189"
         offset="0"
         style="stop-color:#ffffff;stop-opacity:1;" />
      <stop
         id="stop2191"
         offset="1"
         style="stop-color:#ffffff;stop-opacity:0;" />
    </linearGradient>
    <linearGradient
       inkscape:collect="always"
       xlink:href="#linearGradient2187"
       id="linearGradient1764"
       gradientUnits="userSpaceOnUse"
       gradientTransform="matrix(-1.813471e-16,-1.171926,-1.171926,1.813471e-16,46.17440,54.10111)"
       x1="17.060806"
       y1="11.39502"
       x2="12.624337"
       y2="12.583769" />
    <linearGradient
       inkscape:collect="always"
       xlink:href="#linearGradient2308"
       id="linearGradient2314"
       x1="26.5"
       y1="34.25"
       x2="26.25"
       y2="43.571831"
       gradientUnits="userSpaceOnUse" />
    <linearGradient
       inkscape:collect="always"
       xlink:href="#linearGradient2316"
       id="linearGradient2322"
       x1="26.5"
       y1="34.25"
       x2="26.25"
       y2="43.571831"
       gradientUnits="userSpaceOnUse" />
    <radialGradient
       inkscape:collect="always"
       xlink:href="#linearGradient2326"
       id="radialGradient2332"
       cx="15.09403"
       cy="13.282721"
       fx="15.09403"
       fy="13.282721"
       r="10.16466"
       gradientTransform="matrix(2.496031,-1.151905e-16,1.061756e-16,2.300689,-25.12402,-17.82636)"
       gradientUnits="userSpaceOnUse" />
  </defs>
  <sodipodi:namedview
     stroke="#c4a000"
     fill="#edd400"
     id="base"
     pagecolor="#ffffff"
     bordercolor="#666666"
     borderopacity="0.25490196"
     inkscape:pageopacity="0.0"
     inkscape:pageshadow="2"
     inkscape:zoom="2.8284271"
     inkscape:cx="-19.855325"
     inkscape:cy="-15.183692"
     inkscape:current-layer="layer1"
     showgrid="false"
     inkscape:grid-bbox="true"
     inkscape:document-units="px"
     inkscape:showpageshadow="false"
     inkscape:window-width="891"
     inkscape:window-height="548"
     inkscape:window-x="0"
     inkscape:window-y="25"
     inkscape:window-maximized="0" />
  <metadata
     id="metadata4">
    <rdf:RDF>
      <cc:Work
         rdf:about="">
        <dc:format>image/svg+xml</dc:format>
        <dc:type
           rdf:resource="http://purl.org/dc/dcmitype/StillImage" />
        <dc:creator>
          <cc:Agent>
            <dc:title>Jakub Steiner</dc:title>
          </cc:Agent>
        </dc:creator>
        <dc:source>http://jimmac.musichall.cz</dc:source>
        <cc:license
           rdf:resource="http://creativecommons.org/licenses/publicdomain/" />
        <dc:title>Edit Undo</dc:title>
        <dc:subject>
          <rdf:Bag>
            <rdf:li>edit</rdf:li>
            <rdf:li>undo</rdf:li>
            <rdf:li>revert</rdf:li>
          </rdf:Bag>
        </dc:subject>
      </cc:Work>
      <cc:License
         rdf:about="http://creativecommons.org/licenses/publicdomain/">
        <cc:permits
           rdf:resource="http://creativecommons.org/ns#Reproduction" />
        <cc:permits
           rdf:resource="http://creativecommons.org/ns#Distribution" />
        <cc:permits
           rdf:resource="http://creativecommons.org/ns#DerivativeWorks" />
      </cc:License>
    </rdf:RDF>
  </metadata>
  <g
     id="layer1"
     inkscape:label="Layer 1"
     inkscape:groupmode="layer">
    <path
       style="opacity:1;color:#000000;fill:url(#linearGradient2314);fill-opacity:1.0;fill-rule:nonzero;stroke:url(#linearGradient2322);stroke-width:1.00000012;stroke-linecap:butt;stroke-linejoin:miter;marker:none;marker-start:none;marker-mid:none;marker-end:none;stroke-miterlimit:4;stroke-dasharray:none;stroke-dashoffset:0;stroke-opacity:1;visibility:visible;display:block;overflow:visible"
       d="M 9.582441,45.034369 C 49.608249,46.355509 43.282405,12.29355 22.462411,12.49765 L 22.462411,3.1222396 L 5.8139298,17.708819 L 22.462411,33.006349 C 22.462411,33.006349 22.462411,23.337969 22.462411,23.337969 C 36.525521,22.751999 40.639939,44.770549 9.582441,45.034369 z "
       id="path1432"
       sodipodi:nodetypes="ccccccc" />
    <path
       sodipodi:nodetypes="ccccccc"
       id="path2177"
       d="M 31.032281,39.315519 C 42.75538,33.235892 39.220073,13.087489 21.448701,13.549959 L 21.448701,5.4508678 C 21.448701,5.4508678 7.4009628,17.714589 7.4009628,17.714589 L 21.448701,30.658617 C 21.448701,30.658617 21.448701,22.380979 21.448701,22.380979 C 36.288551,22.032709 35.608611,35.138579 31.032281,39.315519 z "
       style="opacity:0.69886361;color:#000000;fill:none;fill-opacity:1;fill-rule:nonzero;stroke:url(#linearGradient1764);stroke-width:0.9999997;stroke-linecap:butt;stroke-linejoin:miter;marker:none;marker-start:none;marker-mid:none;marker-end:none;stroke-miterlimit:10;stroke-dasharray:none;stroke-dashoffset:0;stroke-opacity:1;visibility:visible;display:block;overflow:visible" />
    <path
       style="opacity:0.51136364;color:#000000;fill:url(#radialGradient2332);fill-opacity:1.0;fill-rule:evenodd;stroke:none;stroke-width:1;stroke-linecap:butt;stroke-linejoin:miter;marker:none;marker-start:none;marker-mid:none;marker-end:none;stroke-miterlimit:4;stroke-dasharray:none;stroke-dashoffset:0;stroke-opacity:1;visibility:visible;display:inline;overflow:visible"
       d="M 6.6291261,17.682797 L 12.28598,23.074486 C 18.561553,22.897709 15.733126,16.710525 26.958446,13.616933 L 22.008699,12.998214 L 21.92031,4.3361562 L 6.6291261,17.682797 z "
       id="path2324"
       sodipodi:nodetypes="cccccc" />
  </g>
</svg>
